svg/fluentui-system-icons/ic_fluent_image_circle_20_regular.svg

<svg width="20" height="20" viewBox="0 0 20 20" fill="none" xmlns="http://www.w3.org/2000/svg">
<path d="M10 3C6.13401 3 3 6.13401 3 10C3 11.7547 3.64565 13.3586 4.71233 14.5872L8.94781 10.4185C9.5316 9.84393 10.4684 9.84393 11.0522 10.4185L15.2877 14.5872C16.3544 13.3586 17 11.7547 17 10C17 6.13401 13.866 3 10 3ZM10 17C11.7513 17 13.3525 16.3568 14.5801 15.2938L10.3507 11.1312C10.1561 10.9397 9.84387 10.9397 9.64927 11.1312L5.41994 15.2938C6.64753 16.3568 8.24866 17 10 17ZM2 10C2 5.58172 5.58172 2 10 2C14.4183 2 18 5.58172 18 10C18 14.4183 14.4183 18 10 18C5.58172 18 2 14.4183 2 10ZM13 7.5C13 7.22386 12.7761 7 12.5 7C12.2239 7 12 7.22386 12 7.5C12 7.77614 12.2239 8 12.5 8C12.7761 8 13 7.77614 13 7.5ZM14 7.5C14 8.32843 13.3284 9 12.5 9C11.6716 9 11 8.32843 11 7.5C11 6.67157 11.6716 6 12.5 6C13.3284 6 14 6.67157 14 7.5Z" fill="#212121"/>
</svg>

<svg xmlns="http://www.w3.org/2000/svg" width="20" height="20"><path d="M10 3a7 7 0 0 0-5.288 11.587l4.236-4.168a1.5 1.5 0 0 1 2.104 0l4.236 4.168A7 7 0 0 0 10 3Zm0 14a6.973 6.973 0 0 0 4.58-1.706l-4.23-4.163a.5.5 0 0 0-.7 0l-4.23 4.163A6.973 6.973 0 0 0 10 17Zm-8-7a8 8 0 1 1 16 0 8 8 0 0 1-16 0Zm11-2.5a.5.5 0 1 0-1 0 .5.5 0 0 0 1 0Zm1 0a1.5 1.5 0 1 1-3 0 1.5 1.5 0 0 1 3 0Z"/></svg>
